X:1
T:Title
%%score { ( 1 3 ) | ( 2 4 ) }
L:1/8
Q:1/4=92
M:4/4
K:A
V:1 treble nm="Grand Piano"
V:3 treble 
V:2 bass 
V:4 bass 
V:1
 [Ec]2 [CA]2 [CE]3 [=C^D] | C-[CE] z A [DA]2 [DG]2 | d2 B2 G3 F | FEGF [CE]4 | %4
w: Charles~S.~Brown * * *||||
 [Ec]2 [CA]2 [CE]3 [=C^D] | FE z A [DA]2 [DG]2 | [DFd]2 [DF]2 [DFB]3 [DF^A] | G-[Gd][Ec]B [CA]4 | %8
w: ||||
 A2 G2 F3 C | FGAB [CGc]2 [CG]2 | A2 F2 d3 c | BAGA B4 | [Cc]2 [CA]2 [CE]3 [=C^D] | %13
w: |||||
 C-[CE] z A [DA]2 [DG]2 | [DFd]2 [DF]2 [DFB]3 [DF^A] | G-[Gd][Ec]B [CA]4 |] %16
w: |||
V:2
 [A,,A,]2 [A,,E,]2 [A,,A,]3 [A,,A,] | [A,,A,]2 [A,,A,]2 [B,,E,]2 [B,,E,]2 | %2
 [E,G,D]2 [E,G,D]2 [E,B,D]3 [E,A,D] | .A,2 .B,2 z4 | [A,,A,]2 [A,,E,]2 [A,,A,]3 [A,,A,] | %5
 [A,,A,]2 [A,,E,]2 [B,,E,]2 [B,,E,]2 | D,2 D,2 B,,3 B,, | z B, z D A,,4 | A,2 G,2 F,3 [F,A,] | %9
 [F,A,C]2 [F,CF]2 ^E,2 E,2 | A,2 F,2 [E,G,E]3 [E,A,E] | DC[B,D][A,C] [E,G,D]4 | %12
 [A,,A,]2 [A,,E,]2 [A,,A,]3 [A,,A,] | [A,,A,]2 [A,,E,]2 [B,,E,]2 [B,,E,]2 | D,2 D,2 B,,3 B,, | %15
 z B, z D A,,4 |] %16
V:3
 x8 | .F2 C2 z4 | x8 | x8 | x8 | C2 C2 z4 | x8 | .[DB]2 G2 z4 | x8 | x8 | x8 | x8 | x8 | %13
 .F2 C2 z4 | x8 | .[DB]2 G2 z4 |] %16
V:4
 x8 | x8 | x8 | [E,D]-[E,G,D][E,D]-[E,A,D] [A,,A,]4 | x8 | x8 | x8 | E,2 E,2 z4 | x8 | x8 | x8 | %11
 [E,E]2 E,2 z4 | x8 | x8 | x8 | E,2 E,2 z4 |] %16

